ERK
CUT[BAEURIN DU SOLLST HEIMEGEHN]
REG[Europa, Mitteleuropa, Deutschland]
TRD[]
FKT[]
SIG[E0910D]
KEY[E0910D  08  F 6/8]
MEL[-5_-5-7-6-5  321#2_
    2  321#2_2  321#2_
    2  322765  54#4#65
    5  651-725  65-7130
    -5-5-71_1  2123_0
    4321_1  -7-6-71_
    5  651-725  65-7130
    -5-5-71_1  2123_0
    4321_1  -7-6-71_0 //]
BEM[]
MEL_SEM[0 4 -2 -2 9 -2 -1 1 0 2 -2 -1 1 0 2 -2 -1 1 0 2 -2 0 9 -2 -2 0 -1 0 3 -2 0 2 -2 -7 -1 3 5 2 -2 -8 1 4 -9 0 4 1 0 2 -2 2 2 1 -1 -2 -2 0 -1 -2 2 1 7 2 -2 -7 -1 3 5 2 -2 -8 1 4 -9 0 4 1 0 2 -2 2 2 1 -1 -2 -2 0 -1 -2 2 1]
MEL_RAW[-5-5-7-6-5  321#2
    2  321#22  321#2
    2  322765  54#4#65
    5  651-725  65-7130
    -5-5-711  21230
    43211  -7-6-71
    5  651-725  65-7130
    -5-5-711  21230
    43211  -7-6-710]
NO_REP[-5-7-6-5321#2
    2321#2321#2
    2327654#65
    5651-72565-7130
    -5-7121230
    4321-7-6-71
    5651-72565-7130
    -5-7121230
    4321-7-6-710]
RTM[x_xxxx  xxxx_
    x  xxxx_x  xxxx_
    x  xxxxxx  xxxxx
    x  xxxxxx  xxxxxx
    xxxx_x  xxxx_x
    xxxx_x  xxxx_
    x  xxxxxx  xxxxxx
    xxxx_x  xxxx_x
    xxxx_x  xxxx_x]
SCL_DEG[-5-6-711#2344#567]
SCL_SEM[2 2 1 1 1 2 1 1 1 2 2]

